src/assets/location.svg

<svg fill="none" height="24" viewBox="0 0 20 24" width="20" xmlns="http://www.w3.org/2000/svg"><path d="m2.91154 2.91169c1.86409-1.86432 4.39234-2.91169 7.02856-2.91169 2.6362 0 5.1645 1.04737 7.0286 2.91169s2.9113 4.39289 2.9113 7.02944c0 2.63657-1.0472 5.16507-2.9113 7.02947l-7.0286 7.0294-7.02856-7.0294c-.92307-.9231-1.65529-2.019-2.154852-3.2251-.499565-1.2061-.756688-2.4989-.756688-3.80437 0-1.30551.257123-2.59823.756688-3.80435.499562-1.20612 1.231782-2.30201 2.154852-3.22509zm7.02856 9.86961c.7532 0 1.4755-.2992 2.0081-.8319.5325-.5326.8317-1.255.8317-2.00827s-.2992-1.47568-.8317-2.00831c-.5326-.53264-1.2549-.83187-2.0081-.83187-.75316 0-1.47548.29923-2.00805.83187-.53258.53263-.83177 1.25504-.83177 2.00831s.29919 1.47567.83177 2.00827c.53257.5327 1.25489.8319 2.00805.8319z" fill="#0b0c0d"/></svg>

<svg width="20" height="24" viewBox="0 0 20 24" fill="none" xmlns="http://www.w3.org/2000/svg">
<path d="M2.91154 2.91169C4.77563 1.04737 7.30388 0 9.9401 0C12.5763 0 15.1046 1.04737 16.9687 2.91169C18.8328 4.77601 19.88 7.30458 19.88 9.94113C19.88 12.5777 18.8328 15.1062 16.9687 16.9706L9.9401 24L2.91154 16.9706C1.98847 16.0475 1.25625 14.9516 0.756688 13.7455C0.257123 12.5394 0 11.2466 0 9.94113C0 8.63562 0.257123 7.3429 0.756688 6.13678C1.25625 4.93066 1.98847 3.83477 2.91154 2.91169ZM9.9401 12.7813C10.6933 12.7813 11.4156 12.4821 11.9482 11.9494C12.4807 11.4168 12.7799 10.6944 12.7799 9.94113C12.7799 9.18786 12.4807 8.46545 11.9482 7.93282C11.4156 7.40018 10.6933 7.10095 9.9401 7.10095C9.18694 7.10095 8.46462 7.40018 7.93205 7.93282C7.39947 8.46545 7.10028 9.18786 7.10028 9.94113C7.10028 10.6944 7.39947 11.4168 7.93205 11.9494C8.46462 12.4821 9.18694 12.7813 9.9401 12.7813Z" fill="#0B0C0D"/>
</svg>
